ligabank/src/img/svg/tabs/phone.svg

<svg width="20" height="34" viewBox="0 0 20 34" fill="none" xmlns="http://www.w3.org/2000/svg">
<path d="M17.6746 0H2.3254C1.04663 0 0 1.03263 0 2.29646V31.7026C0 32.9664 1.04663 34 2.3254 34H17.6746C18.9534 34 20 32.9683 20 31.7035V2.29646C20 1.03263 18.9534 0 17.6746 0ZM7.54476 1.65531H12.4552C12.6107 1.65531 12.7366 1.77966 12.7366 1.93411C12.7366 2.0876 12.6107 2.21194 12.4552 2.21194H7.54476C7.38934 2.21194 7.26343 2.0876 7.26343 1.93411C7.26343 1.77966 7.38934 1.65531 7.54476 1.65531ZM10 32.8518C9.35766 32.8518 8.8373 32.3379 8.8373 31.7026C8.8373 31.0673 9.35766 30.5543 10 30.5543C10.6423 30.5543 11.1627 31.0673 11.1627 31.7026C11.1627 32.3379 10.6423 32.8518 10 32.8518ZM18.3819 29.75H1.61814V3.64189H18.3819V29.75Z" fill="#565EF5"/>
</svg>

<svg width="20" height="34" fill="none" xmlns="http://www.w3.org/2000/svg"><path d="M17.67 0H2.33A2.32 2.32 0 0 0 0 2.3v29.4C0 32.97 1.05 34 2.33 34h15.34A2.32 2.32 0 0 0 20 31.7V2.3C20 1.03 18.95 0 17.67 0zM7.54 1.66h4.92c.15 0 .28.12.28.27 0 .16-.13.28-.28.28H7.54a.28.28 0 0 1-.28-.28c0-.15.13-.27.28-.27zM10 32.86a1.15 1.15 0 0 1 0-2.3c.64 0 1.16.5 1.16 1.14 0 .64-.52 1.15-1.16 1.15zm8.38-3.11H1.62V3.65h16.76v26.1z" fill="#565EF5"/></svg>
